images/content/semiregular-convex-uniform/heptagonal-antiprism.svg

<?xml version="1.0" encoding="UTF-8"?>
<svg xmlns="http://www.w3.org/2000/svg" xmlns:xlink="http://www.w3.org/1999/xlink" width="172.54pt" height="151.13pt" viewBox="0 0 172.54 151.13" version="1.2">
<defs>
<clipPath id="clip1">
  <path d="M 18 48 L 171.816406 48 L 171.816406 97 L 18 97 Z M 18 48 "/>
</clipPath>
<clipPath id="clip2">
  <path d="M 75 48 L 171.816406 48 L 171.816406 97 L 75 97 Z M 75 48 "/>
</clipPath>
<clipPath id="clip3">
  <path d="M 74 47 L 171.816406 47 L 171.816406 97 L 74 97 Z M 74 47 "/>
</clipPath>
<clipPath id="clip4">
  <path d="M 138 24 L 171.816406 24 L 171.816406 97 L 138 97 Z M 138 24 "/>
</clipPath>
<clipPath id="clip5">
  <path d="M 0.265625 40 L 19 40 L 19 116 L 0.265625 116 Z M 0.265625 40 "/>
</clipPath>
<clipPath id="clip6">
  <path d="M 0.265625 40 L 20 40 L 20 116 L 0.265625 116 Z M 0.265625 40 "/>
</clipPath>
<clipPath id="clip7">
  <path d="M 0.265625 6 L 42 6 L 42 71 L 0.265625 71 Z M 0.265625 6 "/>
</clipPath>
<clipPath id="clip8">
  <path d="M 0.265625 6 L 42 6 L 42 72 L 0.265625 72 Z M 0.265625 6 "/>
</clipPath>
<clipPath id="clip9">
  <path d="M 8 70 L 171.816406 70 L 171.816406 116 L 8 116 Z M 8 70 "/>
</clipPath>
<clipPath id="clip10">
  <path d="M 0.265625 6 L 106 6 L 106 98 L 0.265625 98 Z M 0.265625 6 "/>
</clipPath>
<clipPath id="clip11">
  <path d="M 0.265625 6 L 42 6 L 42 41 L 0.265625 41 Z M 0.265625 6 "/>
</clipPath>
<clipPath id="clip12">
  <path d="M 165 24 L 171.816406 24 L 171.816406 97 L 165 97 Z M 165 24 "/>
</clipPath>
<clipPath id="clip13">
  <path d="M 63 96 L 171.816406 96 L 171.816406 150.265625 L 63 150.265625 Z M 63 96 "/>
</clipPath>
<clipPath id="clip14">
  <path d="M 8 96 L 171.816406 96 L 171.816406 150.265625 L 8 150.265625 Z M 8 96 "/>
</clipPath>
<clipPath id="clip15">
  <path d="M 8 115 L 64 115 L 64 150.265625 L 8 150.265625 Z M 8 115 "/>
</clipPath>
<clipPath id="clip16">
  <path d="M 141 67 L 171.816406 67 L 171.816406 141 L 141 141 Z M 141 67 "/>
</clipPath>
<clipPath id="clip17">
  <path d="M 8 83 L 64 83 L 64 150.265625 L 8 150.265625 Z M 8 83 "/>
</clipPath>
<clipPath id="clip18">
  <path d="M 8 82 L 64 82 L 64 150.265625 L 8 150.265625 Z M 8 82 "/>
</clipPath>
<clipPath id="clip19">
  <path d="M 0.265625 40 L 25 40 L 25 116 L 0.265625 116 Z M 0.265625 40 "/>
</clipPath>
<clipPath id="clip20">
  <path d="M 0.265625 40 L 106 40 L 106 98 L 0.265625 98 Z M 0.265625 40 "/>
</clipPath>
<clipPath id="clip21">
  <path d="M 0.265625 40 L 107 40 L 107 98 L 0.265625 98 Z M 0.265625 40 "/>
</clipPath>
<clipPath id="clip22">
  <path d="M 63 97 L 142 97 L 142 150.265625 L 63 150.265625 Z M 63 97 "/>
</clipPath>
<clipPath id="clip23">
  <path d="M 24 83 L 106 83 L 106 150.265625 L 24 150.265625 Z M 24 83 "/>
</clipPath>
<clipPath id="clip24">
  <path d="M 24 82 L 107 82 L 107 150.265625 L 24 150.265625 Z M 24 82 "/>
</clipPath>
</defs>
<g id="surface1">
<path style="fill-rule:nonzero;fill:rgb(82.566833%,55.358887%,57.879639%);fill-opacity:1;stroke-width:5;stroke-linecap:round;stroke-linejoin:round;stroke:rgb(13.729858%,12.159729%,12.548828%);stroke-opacity:1;stroke-miterlimit:10;" d="M 409.733259 1446.986578 L 187.288179 799.648607 L 752.240538 1026.572448 Z M 409.733259 1446.986578 " transform="matrix(0.0994276,0,0,-0.0994276,0.265099,150.26498)"/>
<path style="fill-rule:nonzero;fill:rgb(62.982178%,38.061523%,61.183167%);fill-opacity:1;stroke-width:5;stroke-linecap:round;stroke-linejoin:round;stroke:rgb(13.729858%,12.159729%,12.548828%);stroke-opacity:1;stroke-miterlimit:10;" d="M 1099.108714 1508.785608 L 752.240538 1026.572448 L 1393.528254 925.368186 Z M 1099.108714 1508.785608 " transform="matrix(0.0994276,0,0,-0.0994276,0.265099,150.26498)"/>
<path style="fill-rule:nonzero;fill:rgb(72.424316%,38.490295%,51.191711%);fill-opacity:1;stroke-width:5;stroke-linecap:round;stroke-linejoin:round;stroke:rgb(13.729858%,12.159729%,12.548828%);stroke-opacity:1;stroke-miterlimit:10;" d="M 1099.108714 1508.785608 L 409.733259 1446.986578 L 752.240538 1026.572448 Z M 1099.108714 1508.785608 " transform="matrix(0.0994276,0,0,-0.0994276,0.265099,150.26498)"/>
<g clip-path="url(#clip1)" clip-rule="nonzero">
<path style=" stroke:none;fill-rule:nonzero;fill:rgb(68.360901%,73.706055%,89.868164%);fill-opacity:1;" d="M 75.058594 48.195312 L 18.886719 70.757812 L 171.5625 96.679688 "/>
</g>
<path style="fill:none;stroke-width:5;stroke-linecap:round;stroke-linejoin:round;stroke:rgb(13.729858%,12.159729%,12.548828%);stroke-opacity:1;stroke-miterlimit:10;" d="M 752.240538 1026.572448 L 187.288179 799.648607 " transform="matrix(0.0994276,0,0,-0.0994276,0.265099,150.26498)"/>
<g clip-path="url(#clip2)" clip-rule="nonzero">
<path style=" stroke:none;fill-rule:nonzero;fill:rgb(68.360901%,73.706055%,89.868164%);fill-opacity:1;" d="M 171.5625 96.679688 L 138.820312 58.257812 L 75.058594 48.195312 "/>
</g>
<g clip-path="url(#clip3)" clip-rule="nonzero">
<path style="fill:none;stroke-width:5;stroke-linecap:round;stroke-linejoin:round;stroke:rgb(13.729858%,12.159729%,12.548828%);stroke-opacity:1;stroke-miterlimit:10;" d="M 1722.834977 538.93763 L 1393.528254 925.368186 L 752.240538 1026.572448 " transform="matrix(0.0994276,0,0,-0.0994276,0.265099,150.26498)"/>
</g>
<g clip-path="url(#clip4)" clip-rule="nonzero">
<path style="fill-rule:nonzero;fill:rgb(28.089905%,19.299316%,58.679199%);fill-opacity:1;stroke-width:5;stroke-linecap:round;stroke-linejoin:round;stroke:rgb(13.729858%,12.159729%,12.548828%);stroke-opacity:1;stroke-miterlimit:10;" d="M 1666.536177 1265.832522 L 1393.528254 925.368186 L 1722.834977 538.93763 Z M 1666.536177 1265.832522 " transform="matrix(0.0994276,0,0,-0.0994276,0.265099,150.26498)"/>
</g>
<path style="fill-rule:nonzero;fill:rgb(44.05365%,19.888306%,50.614929%);fill-opacity:1;stroke-width:5;stroke-linecap:round;stroke-linejoin:round;stroke:rgb(13.729858%,12.159729%,12.548828%);stroke-opacity:1;stroke-miterlimit:10;" d="M 1666.536177 1265.832522 L 1099.108714 1508.785608 L 1393.528254 925.368186 Z M 1666.536177 1265.832522 " transform="matrix(0.0994276,0,0,-0.0994276,0.265099,150.26498)"/>
<g clip-path="url(#clip5)" clip-rule="nonzero">
<path style=" stroke:none;fill-rule:nonzero;fill:rgb(98.197937%,83.679199%,39.831543%);fill-opacity:1;" d="M 0.511719 40.410156 L 8.390625 115.335938 L 18.886719 70.757812 Z M 0.511719 40.410156 "/>
</g>
<g clip-path="url(#clip6)" clip-rule="nonzero">
<path style="fill:none;stroke-width:5;stroke-linecap:round;stroke-linejoin:round;stroke:rgb(13.729858%,12.159729%,12.548828%);stroke-opacity:1;stroke-miterlimit:10;" d="M 2.480398 1104.872173 L 81.72302 351.301158 L 187.288179 799.648607 Z M 2.480398 1104.872173 " transform="matrix(0.0994276,0,0,-0.0994276,0.265099,150.26498)"/>
</g>
<g clip-path="url(#clip7)" clip-rule="nonzero">
<path style=" stroke:none;fill-rule:nonzero;fill:rgb(94.589233%,59.387207%,36.419678%);fill-opacity:1;" d="M 41.003906 6.394531 L 0.511719 40.410156 L 18.886719 70.757812 Z M 41.003906 6.394531 "/>
</g>
<g clip-path="url(#clip8)" clip-rule="nonzero">
<path style="fill:none;stroke-width:5;stroke-linecap:round;stroke-linejoin:round;stroke:rgb(13.729858%,12.159729%,12.548828%);stroke-opacity:1;stroke-miterlimit:10;" d="M 409.733259 1446.986578 L 2.480398 1104.872173 L 187.288179 799.648607 Z M 409.733259 1446.986578 " transform="matrix(0.0994276,0,0,-0.0994276,0.265099,150.26498)"/>
</g>
<g clip-path="url(#clip9)" clip-rule="nonzero">
<path style=" stroke:none;fill-rule:nonzero;fill:rgb(68.360901%,73.706055%,89.868164%);fill-opacity:1;" d="M 18.886719 70.757812 L 8.390625 115.335938 L 171.5625 96.679688 "/>
</g>
<path style="fill:none;stroke-width:5;stroke-linecap:round;stroke-linejoin:round;stroke:rgb(13.729858%,12.159729%,12.548828%);stroke-opacity:1;stroke-miterlimit:10;" d="M 187.288179 799.648607 L 81.72302 351.301158 " transform="matrix(0.0994276,0,0,-0.0994276,0.265099,150.26498)"/>
<path style=" stroke:none;fill-rule:nonzero;fill:rgb(67.216492%,76.040649%,91.134644%);fill-opacity:1;" d="M 109.546875 0.25 L 165.964844 24.40625 L 105.78125 97.351562 "/>
<path style="fill:none;stroke-width:5;stroke-linecap:round;stroke-linejoin:round;stroke:rgb(13.729858%,12.159729%,12.548828%);stroke-opacity:1;stroke-miterlimit:10;" d="M 1099.108714 1508.785608 L 1666.536177 1265.832522 " transform="matrix(0.0994276,0,0,-0.0994276,0.265099,150.26498)"/>
<path style=" stroke:none;fill-rule:nonzero;fill:rgb(67.216492%,76.040649%,91.134644%);fill-opacity:1;" d="M 41.003906 6.394531 L 109.546875 0.25 L 105.78125 97.351562 "/>
<path style="fill:none;stroke-width:5;stroke-linecap:round;stroke-linejoin:round;stroke:rgb(13.729858%,12.159729%,12.548828%);stroke-opacity:1;stroke-miterlimit:10;" d="M 409.733259 1446.986578 L 1099.108714 1508.785608 " transform="matrix(0.0994276,0,0,-0.0994276,0.265099,150.26498)"/>
<g clip-path="url(#clip10)" clip-rule="nonzero">
<path style=" stroke:none;fill-rule:nonzero;fill:rgb(67.216492%,76.040649%,91.134644%);fill-opacity:1;" d="M 0.511719 40.410156 L 41.003906 6.394531 L 105.78125 97.351562 "/>
</g>
<g clip-path="url(#clip11)" clip-rule="nonzero">
<path style="fill:none;stroke-width:5;stroke-linecap:round;stroke-linejoin:round;stroke:rgb(13.729858%,12.159729%,12.548828%);stroke-opacity:1;stroke-miterlimit:10;" d="M 2.480398 1104.872173 L 409.733259 1446.986578 " transform="matrix(0.0994276,0,0,-0.0994276,0.265099,150.26498)"/>
</g>
<g clip-path="url(#clip12)" clip-rule="nonzero">
<path style="fill-rule:nonzero;fill:rgb(6.30188%,5.761719%,5.056763%);fill-opacity:1;stroke-width:5;stroke-linecap:round;stroke-linejoin:round;stroke:rgb(13.729858%,12.159729%,12.548828%);stroke-opacity:1;stroke-miterlimit:10;" d="M 1711.716651 832.45356 L 1666.536177 1265.832522 L 1722.834977 538.93763 Z M 1711.716651 832.45356 " transform="matrix(0.0994276,0,0,-0.0994276,0.265099,150.26498)"/>
</g>
<g clip-path="url(#clip13)" clip-rule="nonzero">
<path style="fill-rule:nonzero;fill:rgb(68.360901%,73.706055%,89.868164%);fill-opacity:1;stroke-width:5;stroke-linecap:round;stroke-linejoin:round;stroke:rgb(13.729858%,12.159729%,12.548828%);stroke-opacity:1;stroke-miterlimit:10;" d="M 633.789122 2.5079 L 1421.382998 100.137011 L 1722.834977 538.93763 " transform="matrix(0.0994276,0,0,-0.0994276,0.265099,150.26498)"/>
</g>
<g clip-path="url(#clip14)" clip-rule="nonzero">
<path style=" stroke:none;fill-rule:nonzero;fill:rgb(68.360901%,73.706055%,89.868164%);fill-opacity:1;" d="M 8.390625 115.335938 L 63.28125 150.015625 L 171.5625 96.679688 "/>
</g>
<g clip-path="url(#clip15)" clip-rule="nonzero">
<path style="fill:none;stroke-width:5;stroke-linecap:round;stroke-linejoin:round;stroke:rgb(13.729858%,12.159729%,12.548828%);stroke-opacity:1;stroke-miterlimit:10;" d="M 81.72302 351.301158 L 633.789122 2.5079 " transform="matrix(0.0994276,0,0,-0.0994276,0.265099,150.26498)"/>
</g>
<g clip-path="url(#clip16)" clip-rule="nonzero">
<path style="fill-rule:nonzero;fill:rgb(91.300964%,50.611877%,8.49762%);fill-opacity:1;stroke-width:5;stroke-linecap:round;stroke-linejoin:round;stroke:rgb(13.729858%,12.159729%,12.548828%);stroke-opacity:1;stroke-miterlimit:10;" d="M 1711.716651 832.45356 L 1722.834977 538.93763 L 1421.382998 100.137011 Z M 1711.716651 832.45356 " transform="matrix(0.0994276,0,0,-0.0994276,0.265099,150.26498)"/>
</g>
<path style="fill-rule:nonzero;fill:rgb(67.216492%,76.040649%,91.134644%);fill-opacity:1;stroke-width:5;stroke-linecap:round;stroke-linejoin:round;stroke:rgb(13.729858%,12.159729%,12.548828%);stroke-opacity:1;stroke-miterlimit:10;" d="M 1666.536177 1265.832522 L 1711.716651 832.45356 L 1061.235691 532.180202 " transform="matrix(0.0994276,0,0,-0.0994276,0.265099,150.26498)"/>
<g clip-path="url(#clip17)" clip-rule="nonzero">
<path style=" stroke:none;fill-rule:nonzero;fill:rgb(26.443481%,11.341858%,32.800293%);fill-opacity:1;" d="M 24.324219 83.167969 L 63.28125 150.015625 L 8.390625 115.335938 Z M 24.324219 83.167969 "/>
</g>
<g clip-path="url(#clip18)" clip-rule="nonzero">
<path style="fill:none;stroke-width:5;stroke-linecap:round;stroke-linejoin:round;stroke:rgb(13.729858%,12.159729%,12.548828%);stroke-opacity:1;stroke-miterlimit:10;" d="M 241.976196 674.832637 L 633.789122 2.5079 L 81.72302 351.301158 Z M 241.976196 674.832637 " transform="matrix(0.0994276,0,0,-0.0994276,0.265099,150.26498)"/>
</g>
<g clip-path="url(#clip19)" clip-rule="nonzero">
<path style="fill-rule:nonzero;fill:rgb(13.175964%,14.628601%,36.741638%);fill-opacity:1;stroke-width:5;stroke-linecap:round;stroke-linejoin:round;stroke:rgb(13.729858%,12.159729%,12.548828%);stroke-opacity:1;stroke-miterlimit:10;" d="M 2.480398 1104.872173 L 241.976196 674.832637 L 81.72302 351.301158 Z M 2.480398 1104.872173 " transform="matrix(0.0994276,0,0,-0.0994276,0.265099,150.26498)"/>
</g>
<g clip-path="url(#clip20)" clip-rule="nonzero">
<path style=" stroke:none;fill-rule:nonzero;fill:rgb(67.216492%,76.040649%,91.134644%);fill-opacity:1;" d="M 105.78125 97.351562 L 24.324219 83.167969 L 0.511719 40.410156 "/>
</g>
<g clip-path="url(#clip21)" clip-rule="nonzero">
<path style="fill:none;stroke-width:5;stroke-linecap:round;stroke-linejoin:round;stroke:rgb(13.729858%,12.159729%,12.548828%);stroke-opacity:1;stroke-miterlimit:10;" d="M 1061.235691 532.180202 L 241.976196 674.832637 L 2.480398 1104.872173 " transform="matrix(0.0994276,0,0,-0.0994276,0.265099,150.26498)"/>
</g>
<g clip-path="url(#clip22)" clip-rule="nonzero">
<path style="fill-rule:nonzero;fill:rgb(72.297668%,32.199097%,41.287231%);fill-opacity:1;stroke-width:5;stroke-linecap:round;stroke-linejoin:round;stroke:rgb(13.729858%,12.159729%,12.548828%);stroke-opacity:1;stroke-miterlimit:10;" d="M 1061.235691 532.180202 L 1421.382998 100.137011 L 633.789122 2.5079 Z M 1061.235691 532.180202 " transform="matrix(0.0994276,0,0,-0.0994276,0.265099,150.26498)"/>
</g>
<path style="fill-rule:nonzero;fill:rgb(86.027527%,54.890442%,51.005554%);fill-opacity:1;stroke-width:5;stroke-linecap:round;stroke-linejoin:round;stroke:rgb(13.729858%,12.159729%,12.548828%);stroke-opacity:1;stroke-miterlimit:10;" d="M 1061.235691 532.180202 L 1711.716651 832.45356 L 1421.382998 100.137011 Z M 1061.235691 532.180202 " transform="matrix(0.0994276,0,0,-0.0994276,0.265099,150.26498)"/>
<g clip-path="url(#clip23)" clip-rule="nonzero">
<path style=" stroke:none;fill-rule:nonzero;fill:rgb(60.20813%,32.545471%,56.867981%);fill-opacity:1;" d="M 24.324219 83.167969 L 105.78125 97.351562 L 63.28125 150.015625 Z M 24.324219 83.167969 "/>
</g>
<g clip-path="url(#clip24)" clip-rule="nonzero">
<path style="fill:none;stroke-width:5;stroke-linecap:round;stroke-linejoin:round;stroke:rgb(13.729858%,12.159729%,12.548828%);stroke-opacity:1;stroke-miterlimit:10;" d="M 241.976196 674.832637 L 1061.235691 532.180202 L 633.789122 2.5079 Z M 241.976196 674.832637 " transform="matrix(0.0994276,0,0,-0.0994276,0.265099,150.26498)"/>
</g>
</g>
</svg>

<svg xmlns="http://www.w3.org/2000/svg" width="230.053" height="201.507" viewBox="0 0 172.54 151.13" version="1.2"><defs><clipPath id="a"><path d="M18 48h153.816v49H18Zm0 0"/></clipPath><clipPath id="b"><path d="M75 48h96.816v49H75Zm0 0"/></clipPath><clipPath id="c"><path d="M74 47h97.816v50H74Zm0 0"/></clipPath><clipPath id="d"><path d="M138 24h33.816v73H138Zm0 0"/></clipPath><clipPath id="e"><path d="M.266 40H19v76H.266Zm0 0"/></clipPath><clipPath id="f"><path d="M.266 40H20v76H.266Zm0 0"/></clipPath><clipPath id="g"><path d="M.266 6H42v65H.266Zm0 0"/></clipPath><clipPath id="h"><path d="M.266 6H42v66H.266Zm0 0"/></clipPath><clipPath id="i"><path d="M8 70h163.816v46H8Zm0 0"/></clipPath><clipPath id="j"><path d="M.266 6H106v92H.266Zm0 0"/></clipPath><clipPath id="k"><path d="M.266 6H42v35H.266Zm0 0"/></clipPath><clipPath id="l"><path d="M165 24h6.816v73H165Zm0 0"/></clipPath><clipPath id="m"><path d="M63 96h108.816v54.266H63Zm0 0"/></clipPath><clipPath id="n"><path d="M8 96h163.816v54.266H8Zm0 0"/></clipPath><clipPath id="o"><path d="M8 115h56v35.266H8Zm0 0"/></clipPath><clipPath id="p"><path d="M141 67h30.816v74H141Zm0 0"/></clipPath><clipPath id="q"><path d="M8 83h56v67.266H8Zm0 0"/></clipPath><clipPath id="r"><path d="M8 82h56v68.266H8Zm0 0"/></clipPath><clipPath id="s"><path d="M.266 40H25v76H.266Zm0 0"/></clipPath><clipPath id="t"><path d="M.266 40H106v58H.266Zm0 0"/></clipPath><clipPath id="u"><path d="M.266 40H107v58H.266Zm0 0"/></clipPath><clipPath id="v"><path d="M63 97h79v53.266H63Zm0 0"/></clipPath><clipPath id="w"><path d="M24 83h82v67.266H24Zm0 0"/></clipPath><clipPath id="x"><path d="M24 82h83v68.266H24Zm0 0"/></clipPath></defs><path style="fill-rule:nonzero;fill:#d38d94;fill-opacity:1;stroke-width:5;stroke-linecap:round;stroke-linejoin:round;stroke:#231f20;stroke-opacity:1;stroke-miterlimit:10" d="M409.733 1446.987 187.288 799.649l564.953 226.923Zm0 0" transform="matrix(.09943 0 0 -.09943 .265 150.265)"/><path style="fill-rule:nonzero;fill:#a1619c;fill-opacity:1;stroke-width:5;stroke-linecap:round;stroke-linejoin:round;stroke:#231f20;stroke-opacity:1;stroke-miterlimit:10" d="M1099.109 1508.786 752.24 1026.572l641.287-101.204Zm0 0" transform="matrix(.09943 0 0 -.09943 .265 150.265)"/><path style="fill-rule:nonzero;fill:#b96283;fill-opacity:1;stroke-width:5;stroke-linecap:round;stroke-linejoin:round;stroke:#231f20;stroke-opacity:1;stroke-miterlimit:10" d="m1099.109 1508.786-689.376-61.8 342.508-420.414Zm0 0" transform="matrix(.09943 0 0 -.09943 .265 150.265)"/><g clip-path="url(#a)"><path style="stroke:none;fill-rule:nonzero;fill:#aebce5;fill-opacity:1" d="M75.059 48.195 18.887 70.758 171.562 96.68"/></g><path style="fill:none;stroke-width:5;stroke-linecap:round;stroke-linejoin:round;stroke:#231f20;stroke-opacity:1;stroke-miterlimit:10" d="M752.24 1026.572 187.289 799.65" transform="matrix(.09943 0 0 -.09943 .265 150.265)"/><g clip-path="url(#b)"><path style="stroke:none;fill-rule:nonzero;fill:#aebce5;fill-opacity:1" d="M171.563 96.68 138.82 58.258 75.06 48.195"/></g><g clip-path="url(#c)"><path style="fill:none;stroke-width:5;stroke-linecap:round;stroke-linejoin:round;stroke:#231f20;stroke-opacity:1;stroke-miterlimit:10" d="m1722.835 538.938-329.307 386.43-641.287 101.204" transform="matrix(.09943 0 0 -.09943 .265 150.265)"/></g><g clip-path="url(#d)"><path style="fill-rule:nonzero;fill:#483196;fill-opacity:1;stroke-width:5;stroke-linecap:round;stroke-linejoin:round;stroke:#231f20;stroke-opacity:1;stroke-miterlimit:10" d="m1666.536 1265.833-273.008-340.465 329.307-386.43Zm0 0" transform="matrix(.09943 0 0 -.09943 .265 150.265)"/></g><path style="fill-rule:nonzero;fill:#703381;fill-opacity:1;stroke-width:5;stroke-linecap:round;stroke-linejoin:round;stroke:#231f20;stroke-opacity:1;stroke-miterlimit:10" d="m1666.536 1265.833-567.427 242.953 294.42-583.418Zm0 0" transform="matrix(.09943 0 0 -.09943 .265 150.265)"/><g clip-path="url(#e)"><path style="stroke:none;fill-rule:nonzero;fill:#fad566;fill-opacity:1" d="m.512 40.41 7.879 74.926 10.496-44.578Zm0 0"/></g><g clip-path="url(#f)"><path style="fill:none;stroke-width:5;stroke-linecap:round;stroke-linejoin:round;stroke:#231f20;stroke-opacity:1;stroke-miterlimit:10" d="m2.48 1104.872 79.243-753.57 105.565 448.347Zm0 0" transform="matrix(.09943 0 0 -.09943 .265 150.265)"/></g><g clip-path="url(#g)"><path style="stroke:none;fill-rule:nonzero;fill:#f1975d;fill-opacity:1" d="M41.004 6.395.512 40.41l18.375 30.348Zm0 0"/></g><g clip-path="url(#h)"><path style="fill:none;stroke-width:5;stroke-linecap:round;stroke-linejoin:round;stroke:#231f20;stroke-opacity:1;stroke-miterlimit:10" d="M409.733 1446.987 2.48 1104.872 187.288 799.65Zm0 0" transform="matrix(.09943 0 0 -.09943 .265 150.265)"/></g><g clip-path="url(#i)"><path style="stroke:none;fill-rule:nonzero;fill:#aebce5;fill-opacity:1" d="M18.887 70.758 8.39 115.336 171.563 96.68"/></g><path style="fill:none;stroke-width:5;stroke-linecap:round;stroke-linejoin:round;stroke:#231f20;stroke-opacity:1;stroke-miterlimit:10" d="M187.288 799.649 81.723 351.3" transform="matrix(.09943 0 0 -.09943 .265 150.265)"/><path style="stroke:none;fill-rule:nonzero;fill:#abc2e8;fill-opacity:1" d="m109.547.25 56.418 24.156-60.184 72.946"/><path style="fill:none;stroke-width:5;stroke-linecap:round;stroke-linejoin:round;stroke:#231f20;stroke-opacity:1;stroke-miterlimit:10" d="m1099.109 1508.786 567.427-242.953" transform="matrix(.09943 0 0 -.09943 .265 150.265)"/><path style="stroke:none;fill-rule:nonzero;fill:#abc2e8;fill-opacity:1" d="M41.004 6.395 109.547.25l-3.766 97.102"/><path style="fill:none;stroke-width:5;stroke-linecap:round;stroke-linejoin:round;stroke:#231f20;stroke-opacity:1;stroke-miterlimit:10" d="m409.733 1446.987 689.376 61.799" transform="matrix(.09943 0 0 -.09943 .265 150.265)"/><g clip-path="url(#j)"><path style="stroke:none;fill-rule:nonzero;fill:#abc2e8;fill-opacity:1" d="M.512 40.41 41.004 6.395l64.777 90.957"/></g><g clip-path="url(#k)"><path style="fill:none;stroke-width:5;stroke-linecap:round;stroke-linejoin:round;stroke:#231f20;stroke-opacity:1;stroke-miterlimit:10" d="m2.48 1104.872 407.253 342.115" transform="matrix(.09943 0 0 -.09943 .265 150.265)"/></g><g clip-path="url(#l)"><path style="fill-rule:nonzero;fill:#100f0d;fill-opacity:1;stroke-width:5;stroke-linecap:round;stroke-linejoin:round;stroke:#231f20;stroke-opacity:1;stroke-miterlimit:10" d="m1711.717 832.454-45.18 433.379 56.298-726.895Zm0 0" transform="matrix(.09943 0 0 -.09943 .265 150.265)"/></g><g clip-path="url(#m)"><path style="fill-rule:nonzero;fill:#aebce5;fill-opacity:1;stroke-width:5;stroke-linecap:round;stroke-linejoin:round;stroke:#231f20;stroke-opacity:1;stroke-miterlimit:10" d="m633.79 2.508 787.593 97.629 301.452 438.8" transform="matrix(.09943 0 0 -.09943 .265 150.265)"/></g><g clip-path="url(#n)"><path style="stroke:none;fill-rule:nonzero;fill:#aebce5;fill-opacity:1" d="m8.39 115.336 54.891 34.68L171.562 96.68"/></g><g clip-path="url(#o)"><path style="fill:none;stroke-width:5;stroke-linecap:round;stroke-linejoin:round;stroke:#231f20;stroke-opacity:1;stroke-miterlimit:10" d="M81.723 351.301 633.789 2.508" transform="matrix(.09943 0 0 -.09943 .265 150.265)"/></g><g clip-path="url(#p)"><path style="fill-rule:nonzero;fill:#e98116;fill-opacity:1;stroke-width:5;stroke-linecap:round;stroke-linejoin:round;stroke:#231f20;stroke-opacity:1;stroke-miterlimit:10" d="m1711.717 832.454 11.118-293.516-301.452-438.801Zm0 0" transform="matrix(.09943 0 0 -.09943 .265 150.265)"/></g><path style="fill-rule:nonzero;fill:#abc2e8;fill-opacity:1;stroke-width:5;stroke-linecap:round;stroke-linejoin:round;stroke:#231f20;stroke-opacity:1;stroke-miterlimit:10" d="m1666.536 1265.833 45.18-433.38-650.48-300.273" transform="matrix(.09943 0 0 -.09943 .265 150.265)"/><g clip-path="url(#q)"><path style="stroke:none;fill-rule:nonzero;fill:#431d54;fill-opacity:1" d="m24.324 83.168 38.957 66.848-54.89-34.68Zm0 0"/></g><g clip-path="url(#r)"><path style="fill:none;stroke-width:5;stroke-linecap:round;stroke-linejoin:round;stroke:#231f20;stroke-opacity:1;stroke-miterlimit:10" d="M241.976 674.833 633.79 2.508 81.723 351.3Zm0 0" transform="matrix(.09943 0 0 -.09943 .265 150.265)"/></g><g clip-path="url(#s)"><path style="fill-rule:nonzero;fill:#22255e;fill-opacity:1;stroke-width:5;stroke-linecap:round;stroke-linejoin:round;stroke:#231f20;stroke-opacity:1;stroke-miterlimit:10" d="m2.48 1104.872 239.496-430.04-160.253-323.53Zm0 0" transform="matrix(.09943 0 0 -.09943 .265 150.265)"/></g><g clip-path="url(#t)"><path style="stroke:none;fill-rule:nonzero;fill:#abc2e8;fill-opacity:1" d="M105.781 97.352 24.324 83.168.512 40.41"/></g><g clip-path="url(#u)"><path style="fill:none;stroke-width:5;stroke-linecap:round;stroke-linejoin:round;stroke:#231f20;stroke-opacity:1;stroke-miterlimit:10" d="m1061.236 532.18-819.26 142.653L2.48 1104.873" transform="matrix(.09943 0 0 -.09943 .265 150.265)"/></g><g clip-path="url(#v)"><path style="fill-rule:nonzero;fill:#b85269;fill-opacity:1;stroke-width:5;stroke-linecap:round;stroke-linejoin:round;stroke:#231f20;stroke-opacity:1;stroke-miterlimit:10" d="m1061.236 532.18 360.147-432.043-787.594-97.63Zm0 0" transform="matrix(.09943 0 0 -.09943 .265 150.265)"/></g><path style="fill-rule:nonzero;fill:#db8c82;fill-opacity:1;stroke-width:5;stroke-linecap:round;stroke-linejoin:round;stroke:#231f20;stroke-opacity:1;stroke-miterlimit:10" d="m1061.236 532.18 650.48 300.274-290.333-732.317Zm0 0" transform="matrix(.09943 0 0 -.09943 .265 150.265)"/><g clip-path="url(#w)"><path style="stroke:none;fill-rule:nonzero;fill:#9a5391;fill-opacity:1" d="m24.324 83.168 81.457 14.184-42.5 52.664Zm0 0"/></g><g clip-path="url(#x)"><path style="fill:none;stroke-width:5;stroke-linecap:round;stroke-linejoin:round;stroke:#231f20;stroke-opacity:1;stroke-miterlimit:10" d="m241.976 674.833 819.26-142.653L633.789 2.508Zm0 0" transform="matrix(.09943 0 0 -.09943 .265 150.265)"/></g></svg>
